!! 00000] TT[WS
!!!OTL: Xiu huadeng
!!!ARE: Asia, China,ˇShanxi Taigu
!! Ethnic Group: Han
!! WI, 251 (2)
!!!SCT: J0297
!!!YEM: Copyright 1995, estate of Helmut Schaffrath.
**kern
*ICvox
*Ivox
*M4/4
*k[b-e-a-]
*E-:
{8r
8ee-
8dd
8cc
8g
8ee-
8dd
8f
=1
8cc
8g
8.b-
16cc
16b-
16cc
16b-
16f
16g
16cc
8g}
=2
{8r
8a-
8g
16g
16g
8.f
16g
8b-
16b-
16cc
=3
8b-
16b-
16d
8.f
16g
8.b-
16f
4e-}
=4
{8b-
8c
4e-
8r
4g
8b-
=5
8.cc
16ee-
8.g
16f
8g
8c
4e-}
=6
{8.ee-
16dd
8cc
16cc
16ee-
8g
8g
8b-
16cc
16ee-
=7
8dd
8cc
8a-
16g
16f
8.e-
16f
16g
16a-
8g}
=8
{8r
8ee-
8dd
8ff
8cc
8g
8b-
16cc
16ee-
=9
8dd
8cc
8a-
8g
8.b-
16f
4e-}
==
!!!AGN: Xiaodiao. XÅshi, Sichun
!!!ONB: ESAC (Essen Associative Code) Database: CHINA
!!!AMT: simple quadruple
!!!AIN: vox
!!!EED: Helmut Schaffrath
!!!EEV: 1.0
*-
